X: 3
T: The Malbay Shuffle
R: reel
M: 4/4
L: 1/8
K: Fmaj
|: c3F GFFF | DFFF GFFA | c2BA GFFF | CDFA GFGA :|
A3c dfff | dfcf dff2 | A3c dffc |dfcA GFDF |
A3c dfff | dfcf dffc | dfcA BGAF | CDFA GFGA |]


Tune 1060	Setting 23459

